src/images/services-section/icon/update.svg

<svg fill="none" height="139" viewBox="0 0 228 139" width="228" xmlns="http://www.w3.org/2000/svg" xmlns:xlink="http://www.w3.org/1999/xlink"><filter id="a" color-interpolation-filters="sRGB" filterUnits="userSpaceOnUse" height="142" width="228" x="0" y="-3"><feFlood flood-opacity="0" result="BackgroundImageFix"/><feColorMatrix in="SourceAlpha" type="matrix" values="0 0 0 0 0 0 0 0 0 0 0 0 0 0 0 0 0 0 127 0"/><feOffset dx="9" dy="9"/><feGaussianBlur stdDeviation="6"/><feColorMatrix type="matrix" values="0 0 0 0 0.9 0 0 0 0 0.9 0 0 0 0 0.9 0 0 0 0.5 0"/><feBlend in2="BackgroundImageFix" mode="normal" result="effect1_dropShadow"/><feColorMatrix in="SourceAlpha" type="matrix" values="0 0 0 0 0 0 0 0 0 0 0 0 0 0 0 0 0 0 127 0"/><feOffset dx="-9" dy="-9"/><feGaussianBlur stdDeviation="6"/><feColorMatrix type="matrix" values="0 0 0 0 0.99 0 0 0 0 0.99 0 0 0 0 0.99 0 0 0 0.5 0"/><feBlend in2="effect1_dropShadow" mode="normal" result="effect2_dropShadow"/><feBlend in="SourceGraphic" in2="effect2_dropShadow" mode="normal" result="shape"/></filter><clipPath id="b"><path d="m21 18h186v100h-186z"/></clipPath><clipPath id="c"><path d="m161.053 35.4174h27v27h-27z" transform="matrix(.94362372 .33102005 -.33102005 .94362372 20.803438 -51.315071)"/></clipPath><g filter="url(#a)"><g clip-path="url(#b)"><rect fill="#fff" height="79.9998" rx="8" width="170.476" x="21" y="38.0002"/><path d="m42.9011 46.5716c-3.9111 0-7.0926 3.0839-7.0926 6.875 0 1.2806.3659 2.5305 1.058 3.6148l5.6306 8.7946c.2335.3655.784.3599 1.0101-.0078l5.4869-8.8796c.6534-1.0614.9997-2.2794.9997-3.522 0-3.7911-3.1816-6.875-7.0927-6.875zm0 10.3201c-1.9838 0-3.5542-1.5652-3.5542-3.4451 0-1.8956 1.5987-3.4452 3.5542-3.4452 1.9556 0 3.5542 1.5496 3.5542 3.4452 0 1.8634-1.5493 3.4451-3.5542 3.4451z" fill="#ce8d80"/><path d="m113.476 46.5716c-3.911 0-7.093 3.0839-7.093 6.875 0 1.2806.366 2.5305 1.058 3.6148l5.631 8.7946c.233.3655.784.3599 1.01-.0078l5.487-8.8796c.653-1.0614.999-2.2794.999-3.522 0-3.7911-3.181-6.875-7.092-6.875zm0 10.3201c-1.984 0-3.555-1.5652-3.555-3.4451 0-1.8956 1.599-3.4452 3.555-3.4452 1.955 0 3.554 1.5496 3.554 3.4452 0 1.8634-1.549 3.4451-3.554 3.4451z" fill="#545c73"/><path d="m59.2132 57.4525h37.0558" stroke="#eaeaea" stroke-linecap="round" stroke-width="3"/><rect fill="#f2eee9" height="5.33332" rx="2" width="27.6576" x="35.8085" y="73.2382"/><rect fill="#eaeaea" height="5.71427" rx="2" width="32.3809" x="51.4761" y="100.857"/><rect fill="#f2eee9" height="5.33332" rx="2" width="26.7039" x="81.5817" y="73.2382"/><rect fill="#f2eee9" height="5.33332" rx="2" width="26.7039" x="81.5817" y="84.6667"/><rect fill="#f2eee9" height="5.33332" rx="2" width="36.241" x="35.8676" y="84.6667"/><ellipse cx="41.0466" cy="103.238" fill="#eaeaea" rx="5.23808" ry="5.23808"/><g fill="#545c73"><path d="m160.588 108.476c-.216 0-.368-.048-.458-.145-.089-.096-.134-.249-.134-.458v-.519h-1.273c-.208 0-.357-.049-.446-.145-.09-.097-.134-.25-.134-.459v-6.9879c0-.2092.044-.3621.134-.4586.089-.1046.238-.1569.446-.1569h1.273v-.5311c0-.2092.045-.362.134-.4586.09-.1046.242-.1569.458-.1569h.893c.216 0 .369.0523.458.1569.097.0966.145.2494.145.4586v.5311c1.683.0402 2.524.8247 2.524 2.3534 0 .37-.078.7-.234.99-.157.289-.369.495-.637.615.715.25 1.072.833 1.072 1.75 0 .781-.238 1.388-.715 1.823-.469.426-1.139.652-2.01.676v.519c0 .225-.052.382-.156.47-.097.089-.275.133-.536.133zm1.039-6.119c.23 0 .409-.06.536-.181.126-.129.189-.314.189-.555 0-.258-.059-.443-.178-.555-.119-.113-.302-.169-.547-.169h-1.229v1.46zm.189 3.247c.239 0 .421-.073.548-.218.134-.152.201-.35.201-.591 0-.274-.071-.479-.213-.616-.141-.136-.335-.205-.58-.205h-1.374v1.63z"/><path d="m169.159 108.476c-.215 0-.368-.048-.457-.145-.09-.096-.134-.249-.134-.458v-.519h-1.273c-.209 0-.358-.048-.447-.145s-.134-.249-.134-.459v-6.9878c0-.2092.045-.3621.134-.4587.089-.1046.238-.1569.447-.1569h1.273v-.531c0-.2092.044-.3621.134-.4586.089-.1046.242-.1569.457-.1569h.894c.216 0 .368.0523.458.1569.096.0965.145.2494.145.4586v.531c1.682.0403 2.524.8248 2.524 2.3534 0 .37-.079.7-.235.99s-.369.495-.637.615c.715.25 1.073.833 1.073 1.75 0 .781-.239 1.388-.715 1.823-.469.426-1.139.652-2.01.676v.519c0 .225-.052.382-.157.47-.096.089-.275.133-.536.133zm1.039-6.119c.231 0 .409-.06.536-.181.127-.129.19-.314.19-.555 0-.258-.06-.443-.179-.555-.119-.113-.301-.169-.547-.169h-1.228v1.46zm.19 3.247c.238 0 .42-.073.547-.218.134-.152.201-.35.201-.591 0-.273-.071-.479-.212-.615-.142-.137-.335-.206-.581-.206h-1.373v1.63z"/><path d="m177.731 108.476c-.216 0-.369-.048-.458-.145-.089-.096-.134-.249-.134-.458v-.519h-1.273c-.208 0-.357-.048-.447-.145-.089-.097-.134-.249-.134-.459v-6.9878c0-.2092.045-.3621.134-.4587.09-.1046.239-.1569.447-.1569h1.273v-.531c0-.2092.045-.3621.134-.4586.089-.1046.242-.1569.458-.1569h.893c.216 0 .369.0523.458.1569.097.0965.145.2494.145.4586v.531c1.683.0403 2.524.8248 2.524 2.3534 0 .37-.078.7-.235.99-.156.29-.368.495-.636.615.715.25 1.072.833 1.072 1.75 0 .781-.238 1.388-.715 1.823-.469.426-1.139.652-2.01.676v.519c0 .225-.052.382-.156.47-.097.089-.276.133-.536.133zm1.038-6.119c.231 0 .41-.06.536-.181.127-.129.19-.314.19-.555 0-.258-.059-.443-.178-.555-.12-.113-.302-.169-.548-.169h-1.228v1.46zm.19 3.247c.238 0 .421-.073.547-.218.134-.152.201-.35.201-.591 0-.273-.07-.479-.212-.615-.141-.137-.335-.206-.58-.206h-1.374v1.63z"/></g><path d="m184.414 32.0227 1.082.8072 1.038.8627.991.9159.942.9665.89 1.0144.836 1.0597.779 1.102.721 1.1412.66 1.1773.597 1.2103.533 1.2399.468 1.2661.4 1.2888.333 1.3081.264 1.3236.194 1.3356.123 1.344.054 1.3486-.017 1.3495-.088 1.3468-.159 1.3403-.228 1.3302-.297 1.3165-.366 1.2991-.434 1.2781-.499 1.2537-.565 1.2258-.628 1.1946-.69 1.1601-.749 1.1224-.808 1.0817-.862 1.0379-.916.9913-.967.9421-1.014.8901-1.06.8359-1.102.7792-1.141.7206-1.177.6598-1.211.5972-1.24.5332-1.266.4675-1.288.4005-1.309.3326-1.323.2637-1.336.1941-1.344.1238-1.348.0534-1.35-.0173-1.347-.0879-1.34-.1582-1.33-.2282-1.317-.2975-1.299-.366-1.278-.4334-1.254-.4998-1.225-.5647-1.195-.628-1.16-.6898-1.122-.7495-1.082-.8072-1.038-.8627-.991-.9159-.942-.9665-.891-1.0144-.835-1.0597-.78-1.1019-.72-1.1413-.66-1.1773-.597-1.2103-.533-1.2399-.468-1.2661-.4-1.2888-.333-1.308-.264-1.3237-.194-1.3356-.124-1.344-.053-1.3485.017-1.3496.088-1.3468.158-1.3403.229-1.3302.297-1.3165.366-1.299.433-1.2782.5-1.2537.565-1.2258.628-1.1946.69-1.1601.749-1.1224.807-1.0816.863-1.038.916-.9913.967-.942 1.014-.8902 1.06-.8359 1.102-.7792 1.141-.7205 1.177-.6598 1.21-.5973 1.24-.5331 1.266-.4675 1.289-.4006 1.308-.3326 1.324-.2637 1.336-.194 1.344-.1239 1.348-.0534 1.35.0173 1.346.0879 1.341.1582 1.33.2282 1.316.2975 1.299.366 1.279.4334 1.253.4998 1.226.5647 1.195.6281 1.16.6897z" fill="#ce8d80"/><g clip-path="url(#c)"><path d="m166.852 42.8295c.593-.1742.893-.8349.625-1.3927l-.094-.1961c-.217-.4513-.735-.6741-1.21-.5143-2.468.8315-4.272 1.6623-5.501 3.9729-.268.5028.01 1.1063.547 1.2948l.246.0861c.501.1756 1.042-.077 1.307-.5367.956-1.6617 2.277-2.1853 4.08-2.714zm12.696 8.5993c-.08.5242.185 1.0598.686 1.2354l.242.0851c.539.1889 1.134-.1106 1.238-.6717.475-2.5705-.412-4.3448-1.811-6.5301-.271-.4235-.817-.5735-1.27-.3542l-.193.0936c-.554.2686-.732.967-.38 1.4723 1.069 1.537 1.779 2.7731 1.488 4.6696zm-3.074 2.301c1.143-3.2591.359-6.5981-2.423-8.385l.253-.7219c.309-.8811-.153-1.8418-1.034-2.1509s-1.842.1526-2.151 1.0337l-.253.7219c-3.3-.3469-5.984 1.7637-7.131 5.0334l-1.588 4.5261c-.175.5006-.542.9109-1.02 1.1406l-1.662.7987c-.294.1414-.52.3938-.628.7018-.113.3207.056.6718.376.7843l15.825 5.551c.32.1125.671-.0563.784-.3769.108-.308.089-.6463-.052-.9404l-.799-1.6619c-.23-.4781-.26-1.0279-.085-1.5284zm-10.466 9.4429c.149.0522.291.0899.44.1065.742.0934 1.468-.1763 1.968-.7164.195-.2175.345-.4749.45-.7722l-4.247-1.4896c-.399 1.1715.211 2.4584 1.389 2.8717z" fill="#fff"/></g></g></g></svg>

<svg width="228" height="139" viewBox="0 0 228 139" fill="none" xmlns="http://www.w3.org/2000/svg">
<g filter="url(#filter0_dd)">
<g clip-path="url(#clip0)">
<rect x="21" y="38.0002" width="170.476" height="79.9998" rx="8" fill="white"/>
<path d="M42.9011 46.5716C38.99 46.5716 35.8085 49.6555 35.8085 53.4466C35.8085 54.7272 36.1744 55.9771 36.8665 57.0614L42.4971 65.856C42.7306 66.2215 43.2811 66.2159 43.5072 65.8482L48.9941 56.9686C49.6475 55.9072 49.9938 54.6892 49.9938 53.4466C49.9938 49.6555 46.8122 46.5716 42.9011 46.5716ZM42.9011 56.8917C40.9173 56.8917 39.3469 55.3265 39.3469 53.4466C39.3469 51.551 40.9456 50.0014 42.9011 50.0014C44.8567 50.0014 46.4553 51.551 46.4553 53.4466C46.4553 55.31 44.906 56.8917 42.9011 56.8917Z" fill="#CE8D80"/>
<path d="M113.476 46.5716C109.565 46.5716 106.383 49.6555 106.383 53.4466C106.383 54.7272 106.749 55.9771 107.441 57.0614L113.072 65.856C113.305 66.2215 113.856 66.2159 114.082 65.8482L119.569 56.9686C120.222 55.9072 120.568 54.6892 120.568 53.4466C120.568 49.6555 117.387 46.5716 113.476 46.5716ZM113.476 56.8917C111.492 56.8917 109.921 55.3265 109.921 53.4466C109.921 51.551 111.52 50.0014 113.476 50.0014C115.431 50.0014 117.03 51.551 117.03 53.4466C117.03 55.31 115.481 56.8917 113.476 56.8917Z" fill="#545C73"/>
<line x1="59.2132" y1="57.4525" x2="96.269" y2="57.4525" stroke="#EAEAEA" stroke-width="3" stroke-linecap="round"/>
<rect x="35.8085" y="73.2382" width="27.6576" height="5.33332" rx="2" fill="#F2EEE9"/>
<rect x="51.4761" y="100.857" width="32.3809" height="5.71427" rx="2" fill="#EAEAEA"/>
<rect x="81.5817" y="73.2382" width="26.7039" height="5.33332" rx="2" fill="#F2EEE9"/>
<rect x="81.5817" y="84.6667" width="26.7039" height="5.33332" rx="2" fill="#F2EEE9"/>
<rect x="35.8676" y="84.6667" width="36.241" height="5.33332" rx="2" fill="#F2EEE9"/>
<ellipse cx="41.0466" cy="103.238" rx="5.23808" ry="5.23808" fill="#EAEAEA"/>
<path d="M160.588 108.476C160.372 108.476 160.22 108.428 160.13 108.331C160.041 108.235 159.996 108.082 159.996 107.873V107.354H158.723C158.515 107.354 158.366 107.305 158.277 107.209C158.187 107.112 158.143 106.959 158.143 106.75V99.7621C158.143 99.5529 158.187 99.4 158.277 99.3035C158.366 99.1989 158.515 99.1466 158.723 99.1466H159.996V98.6155C159.996 98.4063 160.041 98.2535 160.13 98.1569C160.22 98.0523 160.372 98 160.588 98H161.481C161.697 98 161.85 98.0523 161.939 98.1569C162.036 98.2535 162.084 98.4063 162.084 98.6155V99.1466C163.767 99.1868 164.608 99.9713 164.608 101.5C164.608 101.87 164.53 102.2 164.374 102.49C164.217 102.779 164.005 102.985 163.737 103.105C164.452 103.355 164.809 103.938 164.809 104.855C164.809 105.636 164.571 106.243 164.094 106.678C163.625 107.104 162.955 107.33 162.084 107.354V107.873C162.084 108.098 162.032 108.255 161.928 108.343C161.831 108.432 161.653 108.476 161.392 108.476H160.588ZM161.627 102.357C161.857 102.357 162.036 102.297 162.163 102.176C162.289 102.047 162.352 101.862 162.352 101.621C162.352 101.363 162.293 101.178 162.174 101.066C162.055 100.953 161.872 100.897 161.627 100.897H160.398V102.357H161.627ZM161.816 105.604C162.055 105.604 162.237 105.531 162.364 105.386C162.498 105.234 162.565 105.036 162.565 104.795C162.565 104.521 162.494 104.316 162.352 104.179C162.211 104.043 162.017 103.974 161.772 103.974H160.398V105.604H161.816Z" fill="#545C73"/>
<path d="M169.159 108.476C168.944 108.476 168.791 108.428 168.702 108.331C168.612 108.235 168.568 108.082 168.568 107.873V107.354H167.295C167.086 107.354 166.937 107.306 166.848 107.209C166.759 107.112 166.714 106.96 166.714 106.75V99.7622C166.714 99.553 166.759 99.4001 166.848 99.3035C166.937 99.1989 167.086 99.1466 167.295 99.1466H168.568V98.6156C168.568 98.4064 168.612 98.2535 168.702 98.157C168.791 98.0524 168.944 98.0001 169.159 98.0001H170.053C170.269 98.0001 170.421 98.0524 170.511 98.157C170.607 98.2535 170.656 98.4064 170.656 98.6156V99.1466C172.338 99.1869 173.18 99.9714 173.18 101.5C173.18 101.87 173.101 102.2 172.945 102.49C172.789 102.78 172.576 102.985 172.308 103.105C173.023 103.355 173.381 103.938 173.381 104.855C173.381 105.636 173.142 106.243 172.666 106.678C172.197 107.104 171.527 107.33 170.656 107.354V107.873C170.656 108.098 170.604 108.255 170.499 108.343C170.403 108.432 170.224 108.476 169.963 108.476H169.159ZM170.198 102.357C170.429 102.357 170.607 102.297 170.734 102.176C170.861 102.047 170.924 101.862 170.924 101.621C170.924 101.363 170.864 101.178 170.745 101.066C170.626 100.953 170.444 100.897 170.198 100.897H168.97V102.357H170.198ZM170.388 105.604C170.626 105.604 170.808 105.531 170.935 105.386C171.069 105.234 171.136 105.036 171.136 104.795C171.136 104.522 171.065 104.316 170.924 104.18C170.782 104.043 170.589 103.974 170.343 103.974H168.97V105.604H170.388Z" fill="#545C73"/>
<path d="M177.731 108.476C177.515 108.476 177.362 108.428 177.273 108.331C177.184 108.235 177.139 108.082 177.139 107.873V107.354H175.866C175.658 107.354 175.509 107.306 175.419 107.209C175.33 107.112 175.285 106.96 175.285 106.75V99.7622C175.285 99.553 175.33 99.4001 175.419 99.3035C175.509 99.1989 175.658 99.1466 175.866 99.1466H177.139V98.6156C177.139 98.4064 177.184 98.2535 177.273 98.157C177.362 98.0524 177.515 98.0001 177.731 98.0001H178.624C178.84 98.0001 178.993 98.0524 179.082 98.157C179.179 98.2535 179.227 98.4064 179.227 98.6156V99.1466C180.91 99.1869 181.751 99.9714 181.751 101.5C181.751 101.87 181.673 102.2 181.516 102.49C181.36 102.78 181.148 102.985 180.88 103.105C181.595 103.355 181.952 103.938 181.952 104.855C181.952 105.636 181.714 106.243 181.237 106.678C180.768 107.104 180.098 107.33 179.227 107.354V107.873C179.227 108.098 179.175 108.255 179.071 108.343C178.974 108.432 178.795 108.476 178.535 108.476H177.731ZM178.769 102.357C179 102.357 179.179 102.297 179.305 102.176C179.432 102.047 179.495 101.862 179.495 101.621C179.495 101.363 179.436 101.178 179.317 101.066C179.197 100.953 179.015 100.897 178.769 100.897H177.541V102.357H178.769ZM178.959 105.604C179.197 105.604 179.38 105.531 179.506 105.386C179.64 105.234 179.707 105.036 179.707 104.795C179.707 104.522 179.637 104.316 179.495 104.18C179.354 104.043 179.16 103.974 178.915 103.974H177.541V105.604H178.959Z" fill="#545C73"/>
<path d="M184.414 32.0227L185.496 32.8299L186.534 33.6926L187.525 34.6085L188.467 35.575L189.357 36.5894L190.193 37.6491L190.972 38.7511L191.693 39.8923L192.353 41.0696L192.95 42.2799L193.483 43.5198L193.951 44.7859L194.351 46.0747L194.684 47.3828L194.948 48.7064L195.142 50.042L195.265 51.386L195.319 52.7346L195.302 54.0841L195.214 55.4309L195.055 56.7712L194.827 58.1014L194.53 59.4179L194.164 60.717L193.73 61.9951L193.231 63.2488L192.666 64.4746L192.038 65.6692L191.348 66.8293L190.599 67.9517L189.791 69.0334L188.929 70.0713L188.013 71.0626L187.046 72.0047L186.032 72.8948L184.972 73.7307L183.87 74.5099L182.729 75.2305L181.552 75.8903L180.341 76.4875L179.101 77.0207L177.835 77.4882L176.547 77.8887L175.238 78.2213L173.915 78.485L172.579 78.6791L171.235 78.8029L169.887 78.8563L168.537 78.839L167.19 78.7511L165.85 78.5929L164.52 78.3647L163.203 78.0672L161.904 77.7012L160.626 77.2678L159.372 76.768L158.147 76.2033L156.952 75.5753L155.792 74.8855L154.67 74.136L153.588 73.3288L152.55 72.4661L151.559 71.5502L150.617 70.5837L149.726 69.5693L148.891 68.5096L148.111 67.4077L147.391 66.2664L146.731 65.0891L146.134 63.8788L145.601 62.6389L145.133 61.3728L144.733 60.084L144.4 58.776L144.136 57.4523L143.942 56.1167L143.818 54.7727L143.765 53.4242L143.782 52.0746L143.87 50.7278L144.028 49.3875L144.257 48.0573L144.554 46.7408L144.92 45.4418L145.353 44.1636L145.853 42.9099L146.418 41.6841L147.046 40.4895L147.736 39.3294L148.485 38.207L149.292 37.1254L150.155 36.0874L151.071 35.0961L152.038 34.1541L153.052 33.2639L154.112 32.428L155.214 31.6488L156.355 30.9283L157.532 30.2685L158.742 29.6712L159.982 29.1381L161.248 28.6706L162.537 28.27L163.845 27.9374L165.169 27.6737L166.505 27.4797L167.849 27.3558L169.197 27.3024L170.547 27.3197L171.893 27.4076L173.234 27.5658L174.564 27.794L175.88 28.0915L177.179 28.4575L178.458 28.8909L179.711 29.3907L180.937 29.9554L182.132 30.5835L183.292 31.2732L184.414 32.0227Z" fill="#CE8D80"/>
<g clip-path="url(#clip1)">
<path d="M166.852 42.8295C167.445 42.6553 167.745 41.9946 167.477 41.4368L167.383 41.2407C167.166 40.7894 166.648 40.5666 166.173 40.7264C163.705 41.5579 161.901 42.3887 160.672 44.6993C160.404 45.2021 160.682 45.8056 161.219 45.9941L161.465 46.0802C161.966 46.2558 162.507 46.0032 162.772 45.5435C163.728 43.8818 165.049 43.3582 166.852 42.8295ZM179.548 51.4288C179.468 51.953 179.733 52.4886 180.234 52.6642L180.476 52.7493C181.015 52.9382 181.61 52.6387 181.714 52.0776C182.189 49.5071 181.302 47.7328 179.903 45.5475C179.632 45.124 179.086 44.974 178.633 45.1933L178.44 45.2869C177.886 45.5555 177.708 46.2539 178.06 46.7592C179.129 48.2962 179.839 49.5323 179.548 51.4288ZM176.474 53.7298C177.617 50.4707 176.833 47.1317 174.051 45.3448L174.304 44.6229C174.613 43.7418 174.151 42.7811 173.27 42.472C172.389 42.1629 171.428 42.6246 171.119 43.5057L170.866 44.2276C167.566 43.8807 164.882 45.9913 163.735 49.261L162.147 53.7871C161.972 54.2877 161.605 54.698 161.127 54.9277L159.465 55.7264C159.171 55.8678 158.945 56.1202 158.837 56.4282C158.724 56.7489 158.893 57.1 159.213 57.2125L175.038 62.7635C175.358 62.876 175.709 62.7072 175.822 62.3866C175.93 62.0786 175.911 61.7403 175.77 61.4462L174.971 59.7843C174.741 59.3062 174.711 58.7564 174.886 58.2559L176.474 53.7298ZM166.008 63.1727C166.157 63.2249 166.299 63.2626 166.448 63.2792C167.19 63.3726 167.916 63.1029 168.416 62.5628C168.611 62.3453 168.761 62.0879 168.866 61.7906L164.619 60.301C164.22 61.4725 164.83 62.7594 166.008 63.1727Z" fill="white"/>
</g>
</g>
</g>
<defs>
<filter id="filter0_dd" x="0" y="-3" width="228" height="142" filterUnits="userSpaceOnUse" color-interpolation-filters="sRGB">
<feFlood flood-opacity="0" result="BackgroundImageFix"/>
<feColorMatrix in="SourceAlpha" type="matrix" values="0 0 0 0 0 0 0 0 0 0 0 0 0 0 0 0 0 0 127 0"/>
<feOffset dx="9" dy="9"/>
<feGaussianBlur stdDeviation="6"/>
<feColorMatrix type="matrix" values="0 0 0 0 0.9 0 0 0 0 0.9 0 0 0 0 0.9 0 0 0 0.5 0"/>
<feBlend mode="normal" in2="BackgroundImageFix" result="effect1_dropShadow"/>
<feColorMatrix in="SourceAlpha" type="matrix" values="0 0 0 0 0 0 0 0 0 0 0 0 0 0 0 0 0 0 127 0"/>
<feOffset dx="-9" dy="-9"/>
<feGaussianBlur stdDeviation="6"/>
<feColorMatrix type="matrix" values="0 0 0 0 0.99 0 0 0 0 0.99 0 0 0 0 0.99 0 0 0 0.5 0"/>
<feBlend mode="normal" in2="effect1_dropShadow" result="effect2_dropShadow"/>
<feBlend mode="normal" in="SourceGraphic" in2="effect2_dropShadow" result="shape"/>
</filter>
<clipPath id="clip0">
<rect x="21" y="18" width="186" height="100" fill="white"/>
</clipPath>
<clipPath id="clip1">
<rect x="161.053" y="35.4174" width="27" height="27" transform="rotate(19.3307 161.053 35.4174)" fill="white"/>
</clipPath>
</defs>
</svg>
